X:1
T:Fife Ness
T:Fife Ness
T:McGibbon c. 1800
C:McGibbon c. 1800
%%score ( 1 2 )
L:1/8
M:2/2
K:G
V:1 treble 
V:2 treble 
V:1
"D7" BA |"G" G4 G2 Bc | dBGB dBGB |"Am" A4 A2 gf |"D" edBd"C" e2 [cg]2 |"G" G4 G2 Bc | %6
"Em" dBGB"Bm" d3 B |"Am" A3 B"B7" GABA |"Em" G2"Am" E2-"Em" E2 ||"D7" dc |"G" B2 G4 dc | %11
"Em" B2 G4 ed |"Am" c2 A4 ed |"D7" c2 A4 Bc |"G" dBGB gBGB | dBGB"Bm" d3 B |"Am" ABcd"B7" BcAB | %17
"Em" G2"Am" E2-"Em" E2 |] %18
V:2
 [CF]2 | B,4 x4 | x8 | x8 | x8 | x8 | x4 F4 | E4 E2 F2 | E2 x4 || [DF]2 | D2 D4 x2 | E2 E4 G2 | %12
 E2 E4 x2 | F2 F4 x2 | D2 x6 | x8 | E4 ^D4 | x6 |] %18

